dist/intermediate-svg/chat.svg

<?xml version="1.0" encoding="utf-8"?><svg width="12" height="12" fill="none" xmlns="http://www.w3.org/2000/svg" viewBox="0 0 12 12"><path d="M10.2075 0H1.74274C0.79668 0 0 0.79668 0 1.74274V7.21991C0 8.16597 0.79668 8.96265 1.74274 8.96265H2.48963V10.7054C2.48963 11.1535 2.6888 11.5021 3.03735 11.6515C3.13693 11.7013 3.23651 11.7012 3.38589 11.7012C3.63485 11.7012 3.88381 11.6017 4.13277 11.3527L6.57262 8.91287H10.2573C11.2033 8.91287 12 8.11619 12 7.17013V1.69296C11.9502 0.796692 11.1535 0 10.2075 0ZM10.4564 7.21991C10.4564 7.36929 10.3568 7.46888 10.2075 7.46888H5.92531L3.9834 9.4108V7.46888H1.74274C1.59336 7.46888 1.49378 7.36929 1.49378 7.21991V1.74274C1.49378 1.59336 1.59336 1.49378 1.74274 1.49378H10.2075C10.3568 1.49378 10.4564 1.59336 10.4564 1.74274V7.21991Z" fill="#0094FF"/></svg>

<?xml version="1.0" encoding="utf-8"?><svg width="12" height="12" fill="none" xmlns="http://www.w3.org/2000/svg" viewBox="0 0 12 12"><path d="M10.207 0H1.743C.797 0 0 .797 0 1.743V7.22c0 .946.797 1.743 1.743 1.743h.747v1.742c0 .448.199.797.547.947.1.05.2.05.349.05.249 0 .498-.1.747-.35l2.44-2.44h3.684c.946 0 1.743-.796 1.743-1.742V1.693C11.95.797 11.153 0 10.207 0zm.25 7.22c0 .15-.1.249-.25.249H5.925L3.983 9.41V7.469h-2.24c-.15 0-.25-.1-.25-.25V1.744c0-.15.1-.25.25-.25h8.464c.15 0 .25.1.25.25V7.22z" fill="#0094FF"/></svg>
